src/pos-icons/rewind-5.svg

<svg height="24" viewBox="0 0 24 24" width="24" xmlns="http://www.w3.org/2000/svg"><path d="m12.5 3c4.65 0 8.58 3.03 9.97 7.22l-2.37.78c-1.05-3.19-4.06-5.5-7.6-5.5-1.96 0-3.73.72-5.12 1.88l2.62 2.62h-7v-7l2.6 2.6c1.85-1.6 4.25-2.6 6.9-2.6m-3.5 9h6v2h-4v2h2c1.11 0 2 .9 2 2v2c0 1.11-.89 2-2 2h-4v-2h4v-2h-4z"/></svg>

<?xml version="1.0" encoding="UTF-8"?><!DOCTYPE svg PUBLIC "-//W3C//DTD SVG 1.1//EN" "http://www.w3.org/Graphics/SVG/1.1/DTD/svg11.dtd"><svg xmlns="http://www.w3.org/2000/svg" xmlns:xlink="http://www.w3.org/1999/xlink" version="1.1" id="mdi-rewind-5" width="24" height="24" viewBox="0 0 24 24"><path d="M12.5 3C17.15 3 21.08 6.03 22.47 10.22L20.1 11C19.05 7.81 16.04 5.5 12.5 5.5C10.54 5.5 8.77 6.22 7.38 7.38L10 10H3V3L5.6 5.6C7.45 4 9.85 3 12.5 3M9 12H15V14H11V16H13C14.11 16 15 16.9 15 18V20C15 21.11 14.11 22 13 22H9V20H13V18H9V12Z" /></svg>
